; generated by Slic3r 1.1.7 on 2014-09-15 at 10:05:28

; perimeters extrusion width = 0.50mm
; infill extrusion width = 0.84mm
; solid infill extrusion width = 0.84mm
; top infill extrusion width = 0.84mm

G21 ; set units to millimeters
M107
M104 S200 ; set temperature
G28 ; home all axes
G1 Z5 F5000 ; lift nozzle

M109 S200 ; wait for temperature to be reached
G90 ; use absolute coordinates
G92 E0
M82 ; use absolute distances for extrusion
G1 F1800.000 E-1.00000
G92 E0
G1 Z0.500 F7800.000
G1 X65.676 Y77.014 F7800.000
G1 E1.00000 F1800.000
G1 X66.243 Y76.531 E1.04706 F1080.000
G1 X96.554 Y59.031 E3.25715
G1 X98.749 Y58.222 E3.40489
G1 X101.089 Y58.194 E3.55263
G1 X103.446 Y59.031 E3.71062
G1 X133.757 Y76.531 E5.92072 F1080.000
G1 X135.556 Y78.028 E6.06846
G1 X136.750 Y80.040 E6.21620
G1 X137.204 Y82.500 E6.37418
G1 X137.204 Y117.500 E8.58428
G1 X136.807 Y119.806 E8.73202
G1 X135.661 Y121.846 E8.87976
G1 X133.757 Y123.469 E9.03774
G1 X103.446 Y140.969 E11.24784
G1 X101.251 Y141.778 E11.39558
G1 X98.911 Y141.806 E11.54332
G1 X96.554 Y140.969 E11.70131
G1 X66.243 Y123.469 E13.91140
G1 X64.444 Y121.972 E14.05914
G1 X63.250 Y119.960 E14.20688
G1 X62.796 Y117.500 E14.36487
G1 X62.796 Y82.500 E16.57496
G1 X63.194 Y80.194 E16.72271
G1 X64.339 Y78.154 E16.87045
G1 X65.619 Y77.063 E16.97664
G1 F1800.000 E15.97664
G92 E0
G1 X128.026 Y116.181 F7800.000
G1 E1.00000 F1800.000
G1 X100.000 Y132.361 E3.04346 F540.000
G1 X71.975 Y116.181 E5.08691
G1 X71.975 Y83.819 E7.13037
G1 X100.000 Y67.639 E9.17383
G1 X128.026 Y83.819 E11.21728
G1 X128.026 Y116.106 E13.25600
G1 X128.918 Y83.304 F7800.000
G1 X128.918 Y116.696 E15.36455 F540.000
G1 X100.000 Y133.392 E17.47310
G1 X71.082 Y116.696 E19.58164
G1 X71.082 Y83.304 E21.69019
G1 X100.000 Y66.608 E23.79874
G1 X128.853 Y83.267 E25.90255
G1 X129.811 Y82.789 F7800.000
G1 X129.811 Y117.211 E28.07618 F378.000
G1 X100.000 Y134.423 E30.24982
G1 X70.189 Y117.211 E32.42346
G1 X70.189 Y82.789 E34.59710
G1 X100.000 Y65.577 E36.77073
G1 X129.746 Y82.751 E38.93964
G1 X129.490 Y83.172 F7800.000
G1 X127.324 Y84.138 F7800.000
G1 X127.398 Y84.213 E38.94630 F1080.000
G1 X127.398 Y85.483 E39.02651
G1 X124.318 Y82.403 E39.30154
G1 X121.313 Y80.668 F7800.000
G1 X127.398 Y86.753 E39.84495 F1080.000
G1 X127.398 Y88.024 E39.92515
G1 X118.308 Y78.933 E40.73692
G1 X115.303 Y77.198 F7800.000
G1 X127.398 Y89.294 E41.81707 F1080.000
G1 X127.398 Y90.564 E41.89727
G1 X112.298 Y75.463 E43.24578
G1 X109.292 Y73.728 F7800.000
G1 X127.398 Y91.834 E44.86266 F1080.000
G1 X127.398 Y93.104 E44.94287
G1 X106.287 Y71.993 E46.82812
G1 X103.282 Y70.258 F7800.000
G1 X127.398 Y94.374 E48.98174 F1080.000
G1 X127.398 Y95.645 E49.06194
G1 X100.277 Y68.523 E51.48393
G1 X99.269 Y68.785 E51.54970
G1 X127.398 Y96.915 E54.06169
G1 X127.398 Y98.185 E54.14189
G1 X98.464 Y69.250 E56.72579
G1 X97.658 Y69.715 E56.78451
G1 X127.398 Y99.455 E59.44032
G1 X127.398 Y100.725 E59.52052
G1 X96.853 Y70.180 E62.24824
G1 X96.048 Y70.645 E62.30695
G1 X127.398 Y101.995 E65.10658
G1 X127.398 Y103.265 E65.18679
G1 X95.243 Y71.110 E68.05833
G1 X94.437 Y71.575 E68.11704
G1 X127.398 Y104.536 E71.06049
G1 X127.398 Y105.806 E71.14069
G1 X93.632 Y72.040 E74.15605
G1 X92.827 Y72.505 E74.21476
G1 X127.398 Y107.076 E77.30203
G1 X127.398 Y108.346 E77.38224
G1 X92.022 Y72.969 E80.54141
G1 X91.216 Y73.434 E80.60013
G1 X127.398 Y109.616 E83.83121
G1 X127.398 Y110.886 E83.91141
G1 X90.411 Y73.899 E87.21441
G1 X89.606 Y74.364 E87.27312
G1 X127.398 Y112.156 E90.64803
G1 X127.398 Y113.427 E90.72823
G1 X88.801 Y74.829 E94.17505
G1 X87.995 Y75.294 E94.23376
G1 X127.398 Y114.697 E97.75248
G1 X127.304 Y115.873 E97.82698
G1 X87.190 Y75.759 E101.40920
G1 X86.385 Y76.224 E101.46792
G1 X126.499 Y116.338 E105.05014
G1 X125.694 Y116.803 E105.10885
G1 X85.580 Y76.689 E108.69108
G1 X84.775 Y77.154 E108.74979
G1 X124.888 Y117.268 E112.33201
G1 X124.083 Y117.732 E112.39073
G1 X83.969 Y77.619 E115.97295
G1 X83.164 Y78.083 E116.03166
G1 X123.278 Y118.197 E119.61389
G1 X122.473 Y118.662 E119.67260
G1 X82.359 Y78.548 E123.25482
G1 X81.554 Y79.013 E123.31354
G1 X121.667 Y119.127 E126.89576
G1 X120.862 Y119.592 E126.95447
G1 X80.748 Y79.478 E130.53670
G1 X79.943 Y79.943 E130.59541
G1 X120.057 Y120.057 E134.17763
G1 X119.252 Y120.522 E134.23635
G1 X79.138 Y80.408 E137.81857
G1 X78.333 Y80.873 E137.87729
G1 X118.446 Y120.987 E141.45951
G1 X117.641 Y121.452 E141.51822
G1 X77.527 Y81.338 E145.10045
G1 X76.722 Y81.803 E145.15916
G1 X116.836 Y121.917 E148.74138
G1 X116.031 Y122.381 E148.80010
G1 X75.917 Y82.268 E152.38232
G1 X75.112 Y82.732 E152.44103
G1 X115.225 Y122.846 E156.02326
G1 X114.420 Y123.311 E156.08197
G1 X74.306 Y83.197 E159.66419
G1 X73.501 Y83.662 E159.72291
G1 X113.615 Y123.776 E163.30513
G1 X112.810 Y124.241 E163.36384
G1 X72.696 Y84.127 E166.94607
G1 X72.602 Y85.303 E167.02056
G1 X112.005 Y124.706 E170.53929
G1 X111.199 Y125.171 E170.59800
G1 X72.602 Y86.573 E174.04481
G1 X72.602 Y87.844 E174.12502
G1 X110.394 Y125.636 E177.49992
G1 X109.589 Y126.101 E177.55863
G1 X72.602 Y89.114 E180.86163
G1 X72.602 Y90.384 E180.94183
G1 X108.784 Y126.566 E184.17292
G1 X107.978 Y127.031 E184.23163
G1 X72.602 Y91.654 E187.39081
G1 X72.602 Y92.924 E187.47101
G1 X107.173 Y127.495 E190.55828
G1 X106.368 Y127.960 E190.61699
G1 X72.602 Y94.194 E193.63235
G1 X72.602 Y95.464 E193.71255
G1 X105.563 Y128.425 E196.65600
G1 X104.757 Y128.890 E196.71471
G1 X72.602 Y96.735 E199.58625
G1 X72.602 Y98.005 E199.66646
G1 X103.952 Y129.355 E202.46609
G1 X103.147 Y129.820 E202.52480
G1 X72.602 Y99.275 E205.25252
G1 X72.602 Y100.545 E205.33272
G1 X102.342 Y130.285 E207.98853
G1 X101.536 Y130.750 E208.04725
G1 X72.602 Y101.815 E210.63115
G1 X72.602 Y103.085 E210.71135
G1 X100.731 Y131.215 E213.22334
G1 X99.723 Y131.477 E213.28911
G1 X72.602 Y104.355 E215.71109
G1 X72.602 Y105.626 E215.79130
G1 X96.718 Y129.742 E217.94492
G1 X93.713 Y128.007 F7800.000
G1 X72.602 Y106.896 E219.83017 F1080.000
G1 X72.602 Y108.166 E219.91037
G1 X90.708 Y126.272 E221.52726
G1 X87.702 Y124.537 F7800.000
G1 X72.602 Y109.436 E222.87577 F1080.000
G1 X72.602 Y110.706 E222.95597
G1 X84.697 Y122.802 E224.03611
G1 X81.692 Y121.067 F7800.000
G1 X72.602 Y111.976 E224.84789 F1080.000
G1 X72.602 Y113.247 E224.92809
G1 X78.687 Y119.332 E225.47150
G1 X75.682 Y117.597 F7800.000
G1 X72.602 Y114.517 E225.74653 F1080.000
G1 X72.602 Y115.787 E225.82674
G1 X72.676 Y115.862 E225.83340
G1 F1800.000 E224.83340
G92 E0
G1 Z0.750 F7800.000
G1 X129.061 Y83.222 F7800.000
G1 E1.00000 F1800.000
G1 X129.061 Y116.778 E1.59341 F1800.000
G1 X100.000 Y133.557 E2.18682
G1 X70.939 Y116.778 E2.78023
G1 X70.939 Y83.222 E3.37365
G1 X100.000 Y66.443 E3.96706
G1 X128.996 Y83.184 E4.55914
G1 X129.561 Y82.933 F7800.000
G1 X129.561 Y117.067 E5.16276 F1800.000
G1 X100.000 Y134.134 E5.76639
G1 X70.439 Y117.067 E6.37001
G1 X70.439 Y82.933 E6.97363
G1 X100.000 Y65.866 E7.57725
G1 X129.496 Y82.896 E8.17954
G1 X130.061 Y82.644 F7800.000
G1 X130.061 Y117.356 E8.79338 F1260.000
G1 X100.000 Y134.711 E9.40721
G1 X69.939 Y117.356 E10.02104
G1 X69.939 Y82.644 E10.63487
G1 X100.000 Y65.289 E11.24870
G1 X129.996 Y82.607 E11.86120
G1 X129.740 Y83.027 F7800.000
G1 X128.654 Y116.512 F7800.000
G1 X128.580 Y116.587 E11.86414 F3600.000
G1 X128.654 Y115.397 E11.89725
G1 X125.941 Y118.110 E12.00384
G1 X123.302 Y119.633 F7800.000
G1 X128.654 Y114.282 E12.21408 F3600.000
G1 X128.654 Y113.166 E12.24506
G1 X120.664 Y121.157 E12.55896
G1 X118.025 Y122.680 F7800.000
G1 X128.654 Y112.051 E12.97651 F3600.000
G1 X128.654 Y110.936 E13.00749
G1 X115.386 Y124.204 E13.52869
G1 X112.748 Y125.727 F7800.000
G1 X128.654 Y109.821 E14.15356 F3600.000
G1 X128.654 Y108.705 E14.18453
G1 X110.109 Y127.250 E14.91305
G1 X107.471 Y128.774 F7800.000
G1 X128.654 Y107.590 E15.74522 F3600.000
G1 X128.654 Y106.475 E15.77620
G1 X104.832 Y130.297 E16.71203
G1 X102.193 Y131.821 F7800.000
G1 X128.654 Y105.360 E17.75151 F3600.000
G1 X128.654 Y104.245 E17.78249
G1 X99.881 Y133.018 E18.91282
G1 X99.174 Y132.610 E18.93549
G1 X128.654 Y103.129 E20.09360
G1 X128.654 Y102.014 E20.12458
G1 X98.467 Y132.202 E21.31046
G1 X97.760 Y131.794 E21.33313
G1 X128.654 Y100.899 E22.54679
G1 X128.654 Y99.784 E22.57777
G1 X97.053 Y131.385 E23.81919
G1 X96.346 Y130.977 E23.84187
G1 X128.654 Y98.669 E25.11107
G1 X128.654 Y97.553 E25.14205
G1 X95.639 Y130.569 E26.43903
G1 X94.932 Y130.161 E26.46171
G1 X128.654 Y96.438 E27.78646
G1 X128.654 Y95.323 E27.81743
G1 X94.225 Y129.753 E29.16996
G1 X93.518 Y129.344 E29.19264
G1 X128.654 Y94.208 E30.57294
G1 X128.654 Y93.092 E30.60391
G1 X92.811 Y128.936 E32.01199
G1 X92.103 Y128.528 E32.03466
G1 X128.654 Y91.977 E33.47051
G1 X128.654 Y90.862 E33.50149
G1 X91.396 Y128.120 E34.96511
G1 X90.689 Y127.712 E34.98779
G1 X128.654 Y89.747 E36.47919
G1 X128.654 Y88.632 E36.51016
G1 X89.982 Y127.303 E38.02933
G1 X89.275 Y126.895 E38.05201
G1 X128.654 Y87.516 E39.59896
G1 X128.654 Y86.401 E39.62994
G1 X88.568 Y126.487 E41.20465
G1 X87.861 Y126.079 E41.22733
G1 X128.654 Y85.286 E42.82983
G1 X128.654 Y84.171 E42.86080
G1 X87.154 Y125.671 E44.49107
G1 X86.447 Y125.262 E44.51375
G1 X128.400 Y83.310 E46.16180
G1 X127.693 Y82.902 E46.18448
G1 X85.740 Y124.854 E47.83254
G1 X85.033 Y124.446 E47.85522
G1 X126.986 Y82.493 E49.50327
G1 X126.279 Y82.085 E49.52595
G1 X84.326 Y124.038 E51.17401
G1 X83.619 Y123.630 E51.19668
G1 X125.572 Y81.677 E52.84474
G1 X124.865 Y81.269 E52.86742
G1 X82.912 Y123.221 E54.51547
G1 X82.205 Y122.813 E54.53815
G1 X124.158 Y80.861 E56.18621
G1 X123.451 Y80.452 E56.20888
G1 X81.498 Y122.405 E57.85694
G1 X80.791 Y121.997 E57.87962
G1 X122.744 Y80.044 E59.52767
G1 X122.037 Y79.636 E59.55035
G1 X80.084 Y121.589 E61.19841
G1 X79.377 Y121.180 E61.22109
G1 X121.330 Y79.228 E62.86914
G1 X120.623 Y78.820 E62.89182
G1 X78.670 Y120.772 E64.53988
G1 X77.963 Y120.364 E64.56255
G1 X119.916 Y78.411 E66.21061
G1 X119.209 Y78.003 E66.23329
G1 X77.256 Y119.956 E67.88134
G1 X76.549 Y119.548 E67.90402
G1 X118.502 Y77.595 E69.55208
G1 X117.795 Y77.187 E69.57475
G1 X75.842 Y119.139 E71.22281
G1 X75.135 Y118.731 E71.24549
G1 X117.088 Y76.779 E72.89354
G1 X116.381 Y76.370 E72.91622
G1 X74.428 Y118.323 E74.56428
G1 X73.721 Y117.915 E74.58696
G1 X115.674 Y75.962 E76.23501
G1 X114.967 Y75.554 E76.25769
G1 X73.014 Y117.507 E77.90575
G1 X72.307 Y117.098 E77.92842
G1 X114.260 Y75.146 E79.57648
G1 X113.553 Y74.738 E79.59916
G1 X71.600 Y116.690 E81.24721
G1 X71.346 Y115.829 E81.27215
G1 X112.846 Y74.329 E82.90242
G1 X112.139 Y73.921 E82.92510
G1 X71.346 Y114.714 E84.52759
G1 X71.346 Y113.599 E84.55857
G1 X111.432 Y73.513 E86.13329
G1 X110.725 Y73.105 E86.15596
G1 X71.346 Y112.484 E87.70291
G1 X71.346 Y111.368 E87.73389
G1 X110.018 Y72.697 E89.25306
G1 X109.311 Y72.288 E89.27573
G1 X71.346 Y110.253 E90.76713
G1 X71.346 Y109.138 E90.79811
G1 X108.604 Y71.880 E92.26173
G1 X107.897 Y71.472 E92.28441
G1 X71.346 Y108.023 E93.72026
G1 X71.346 Y106.908 E93.75123
G1 X107.189 Y71.064 E95.15931
G1 X106.482 Y70.656 E95.18198
G1 X71.346 Y105.792 E96.56228
G1 X71.346 Y104.677 E96.59326
G1 X105.775 Y70.247 E97.94579
G1 X105.068 Y69.839 E97.96846
G1 X71.346 Y103.562 E99.29322
G1 X71.346 Y102.447 E99.32419
G1 X104.361 Y69.431 E100.62117
G1 X103.654 Y69.023 E100.64385
G1 X71.346 Y101.331 E101.91305
G1 X71.346 Y100.216 E101.94403
G1 X102.947 Y68.615 E103.18546
G1 X102.240 Y68.206 E103.20813
G1 X71.346 Y99.101 E104.42179
G1 X71.346 Y97.986 E104.45276
G1 X101.533 Y67.798 E105.63864
G1 X100.826 Y67.390 E105.66132
G1 X71.346 Y96.871 E106.81943
G1 X71.346 Y95.755 E106.85040
G1 X100.119 Y66.982 E107.98073
G1 X97.807 Y68.179 F7800.000
G1 X71.346 Y94.640 E109.02022 F3600.000
G1 X71.346 Y93.525 E109.05119
G1 X95.168 Y69.703 E109.98702
G1 X92.529 Y71.226 F7800.000
G1 X71.346 Y92.410 E110.81919 F3600.000
G1 X71.346 Y91.295 E110.85017
G1 X89.891 Y72.750 E111.57869
G1 X87.252 Y74.273 F7800.000
G1 X71.346 Y90.179 E112.20355 F3600.000
G1 X71.346 Y89.064 E112.23453
G1 X84.614 Y75.796 E112.75573
G1 X81.975 Y77.320 F7800.000
G1 X71.346 Y87.949 E113.17328 F3600.000
G1 X71.346 Y86.834 E113.20426
G1 X79.336 Y78.843 E113.51816
G1 X76.698 Y80.367 F7800.000
G1 X71.346 Y85.718 E113.72840 F3600.000
G1 X71.346 Y84.603 E113.75938
G1 X74.059 Y81.890 E113.86597
G1 X71.420 Y83.413 F7800.000
G1 X71.346 Y83.488 E113.86890 F3600.000
G1 F1800.000 E112.86890
G92 E0
G1 Z1.000 F7800.000
G1 X129.061 Y83.222 F7800.000
G1 E1.00000 F1800.000
G1 X129.061 Y116.778 E1.59341 F1800.000
G1 X100.000 Y133.557 E2.18682
G1 X70.939 Y116.778 E2.78023
G1 X70.939 Y83.222 E3.37365
G1 X100.000 Y66.443 E3.96706
G1 X128.996 Y83.184 E4.55914
G1 X129.561 Y82.933 F7800.000
G1 X129.561 Y117.067 E5.16276 F1800.000
G1 X100.000 Y134.134 E5.76639
G1 X70.439 Y117.067 E6.37001
G1 X70.439 Y82.933 E6.97363
G1 X100.000 Y65.866 E7.57725
G1 X129.496 Y82.896 E8.17954
G1 X130.061 Y82.644 F7800.000
G1 X130.061 Y117.356 E8.79338 F1260.000
G1 X100.000 Y134.711 E9.40721
G1 X69.939 Y117.356 E10.02104
G1 X69.939 Y82.644 E10.63487
G1 X100.000 Y65.289 E11.24870
G1 X129.996 Y82.607 E11.86120
G1 X129.740 Y83.027 F7800.000
G1 X128.580 Y83.413 F7800.000
G1 X128.654 Y83.488 E11.86414 F3600.000
G1 X128.654 Y84.603 E11.89512
G1 X125.941 Y81.890 E12.00170
G1 X123.302 Y80.367 F7800.000
G1 X128.654 Y85.718 E12.21194 F3600.000
G1 X128.654 Y86.834 E12.24292
G1 X120.664 Y78.843 E12.55682
G1 X118.025 Y77.320 F7800.000
G1 X128.654 Y87.949 E12.97437 F3600.000
G1 X128.654 Y89.064 E13.00535
G1 X115.386 Y75.796 E13.52656
G1 X112.748 Y74.273 F7800.000
G1 X128.654 Y90.179 E14.15142 F3600.000
G1 X128.654 Y91.295 E14.18240
G1 X110.109 Y72.750 E14.91091
G1 X107.471 Y71.226 F7800.000
G1 X128.654 Y92.410 E15.74308 F3600.000
G1 X128.654 Y93.525 E15.77406
G1 X104.832 Y69.703 E16.70989
G1 X102.193 Y68.179 F7800.000
G1 X128.654 Y94.640 E17.74937 F3600.000
G1 X128.654 Y95.755 E17.78035
G1 X99.881 Y66.982 E18.91068
G1 X99.174 Y67.390 E18.93336
G1 X128.654 Y96.871 E20.09146
G1 X128.654 Y97.986 E20.12244
G1 X98.467 Y67.798 E21.30832
G1 X97.760 Y68.206 E21.33100
G1 X128.654 Y99.101 E22.54465
G1 X128.654 Y100.216 E22.57563
G1 X97.053 Y68.615 E23.81706
G1 X96.346 Y69.023 E23.83973
G1 X128.654 Y101.331 E25.10894
G1 X128.654 Y102.447 E25.13991
G1 X95.639 Y69.431 E26.43689
G1 X94.932 Y69.839 E26.45957
G1 X128.654 Y103.562 E27.78432
G1 X128.654 Y104.677 E27.81530
G1 X94.225 Y70.247 E29.16782
G1 X93.518 Y70.656 E29.19050
G1 X128.654 Y105.792 E30.57080
G1 X128.654 Y106.908 E30.60178
G1 X92.811 Y71.064 E32.00985
G1 X92.103 Y71.472 E32.03253
G1 X128.654 Y108.023 E33.46838
G1 X128.654 Y109.138 E33.49935
G1 X91.396 Y71.880 E34.96298
G1 X90.689 Y72.288 E34.98565
G1 X128.654 Y110.253 E36.47705
G1 X128.654 Y111.368 E36.50803
G1 X89.982 Y72.697 E38.02720
G1 X89.275 Y73.105 E38.04988
G1 X128.654 Y112.484 E39.59682
G1 X128.654 Y113.599 E39.62780
G1 X88.568 Y73.513 E41.20252
G1 X87.861 Y73.921 E41.22519
G1 X128.654 Y114.714 E42.82769
G1 X128.654 Y115.829 E42.85867
G1 X87.154 Y74.329 E44.48893
G1 X86.447 Y74.738 E44.51161
G1 X128.400 Y116.690 E46.15967
G1 X127.693 Y117.098 E46.18234
G1 X85.740 Y75.146 E47.83040
G1 X85.033 Y75.554 E47.85308
G1 X126.986 Y117.507 E49.50113
G1 X126.279 Y117.915 E49.52381
G1 X84.326 Y75.962 E51.17187
G1 X83.619 Y76.370 E51.19455
G1 X125.572 Y118.323 E52.84260
G1 X124.865 Y118.731 E52.86528
G1 X82.912 Y76.779 E54.51333
G1 X82.205 Y77.187 E54.53601
G1 X124.158 Y119.139 E56.18407
G1 X123.451 Y119.548 E56.20675
G1 X81.498 Y77.595 E57.85480
G1 X80.791 Y78.003 E57.87748
G1 X122.744 Y119.956 E59.52554
G1 X122.037 Y120.364 E59.54821
G1 X80.084 Y78.411 E61.19627
G1 X79.377 Y78.820 E61.21895
G1 X121.330 Y120.772 E62.86700
G1 X120.623 Y121.180 E62.88968
G1 X78.670 Y79.228 E64.53774
G1 X77.963 Y79.636 E64.56041
G1 X119.916 Y121.589 E66.20847
G1 X119.209 Y121.997 E66.23115
G1 X77.256 Y80.044 E67.87920
G1 X76.549 Y80.452 E67.90188
G1 X118.502 Y122.405 E69.54994
G1 X117.795 Y122.813 E69.57261
G1 X75.842 Y80.861 E71.22067
G1 X75.135 Y81.269 E71.24335
G1 X117.088 Y123.221 E72.89140
G1 X116.381 Y123.630 E72.91408
G1 X74.428 Y81.677 E74.56214
G1 X73.721 Y82.085 E74.58482
G1 X115.674 Y124.038 E76.23287
G1 X114.967 Y124.446 E76.25555
G1 X73.014 Y82.493 E77.90360
